packages/calcite-ui-icons/icons/spaces-parameter-24.svg

<?xml version="1.0" encoding="UTF-8"?><svg id="icons" xmlns="http://www.w3.org/2000/svg" viewBox="0 0 24 24"><rect width="24" height="24" style="fill:none;"/><path d="M2,20v-4h6.15045c.04425-.33081.09845-.66406.16254-1H2v-6h20v2h.64746c.12347,0,.2406.02997.35254.07257V3H1v18h7.31299c-.06409-.33594-.11829-.66919-.16254-1H2ZM2,4h20v4H2v-4ZM20.01294,22h-1.31311l-2.19983-3.08063-2.19983,3.08063h-1.31311l2.85638-4-2.85638-4h1.31311l2.19983,3.08057,2.19983-3.08057h1.31311l-2.85638,4,2.85638,4ZM23.95001,18c0,1.84906-.44946,4.56879-1.30286,6h-1.19147c.96393-1.37097,1.54431-4.10852,1.54431-6s-.58038-4.62903-1.54431-6h1.19147c.85339,1.43121,1.30286,4.15094,1.30286,6ZM11.54431,24h-1.19147c-.85339-1.43121-1.35284-4.15094-1.35284-6s.49945-4.56879,1.35284-6h1.19147c-.96393,1.37097-1.54431,4.10852-1.54431,6s.58038,4.62903,1.54431,6Z"/></svg>

<svg xmlns="http://www.w3.org/2000/svg" viewBox="0 0 24 24"><path fill="none" d="M0 0h24v24H0z"/><path d="M2 20v-4h6.15c.045-.33.099-.664.163-1H2V9h20v2h.647a.98.98 0 0 1 .353.073V3H1v18h7.313a18.24 18.24 0 0 1-.163-1H2zM2 4h20v4H2V4zm18.013 18H18.7l-2.2-3.08L14.3 22h-1.313l2.856-4-2.856-4H14.3l2.2 3.08L18.7 14h1.313l-2.856 4 2.856 4zm3.937-4c0 1.85-.45 4.569-1.303 6h-1.191C22.42 22.629 23 19.891 23 18s-.58-4.629-1.544-6h1.191c.854 1.431 1.303 4.15 1.303 6zm-12.406 6h-1.191C9.499 22.569 9 19.85 9 18s.5-4.569 1.353-6h1.191C10.58 13.371 10 16.109 10 18s.58 4.629 1.544 6z"/></svg>
